public/cards/10-D.svg

<?xml version="1.0" encoding="UTF-8"?>
<svg width="360px" height="540px" viewBox="0 0 360 540" version="1.1" xmlns="http://www.w3.org/2000/svg" xmlns:xlink="http://www.w3.org/1999/xlink">
    <!-- Generator: Sketch 55.2 (78181) - https://sketchapp.com -->
    <title>10-D</title>
    <desc>Created with Sketch.</desc>
    <g id="Page-1" stroke="none" stroke-width="1" fill="none" fill-rule="evenodd">
        <g id="English_pattern_playing_cards_deck" transform="translate(-3510.000000, -1141.000000)" fill-rule="nonzero">
            <g id="10-D" transform="translate(3510.000000, 1140.637820)">
                <rect id="rect6472-6" stroke="#000000" stroke-width="0.99999976" fill="#FFFFFF" x="0.5" y="0.86218" width="359" height="539" rx="29.944447"></rect>
                <g id="g3076-14" transform="translate(10.000000, 30.362180)" fill="#FF5555">
                    <polygon id="rect3156-5-0-2" points="5 0 0 7 0 14 5 7 5 50 10 50 10 0"></polygon>
                    <path d="M25,1.99999999e-05 C19.46,1.99999999e-05 15,4.46002 15,10.00002 L15,40.00002 C15,45.54002 19.46,50.00002 25,50.00002 C30.54,50.00002 35,45.54002 35,40.00002 L35,10.00002 C35,4.46002 30.54,1.99999999e-05 25,1.99999999e-05 Z M25,5.00002 C27.77,5.00002 30,7.23002 30,10.00002 L30,40.00002 C30,42.77002 27.77,45.00002 25,45.00002 C22.23,45.00002 20,42.77002 20,40.00002 L20,10.00002 C20,7.23002 22.23,5.00002 25,5.00002 Z" id="rect3158-7-9-3"></path>
                </g>
                <g id="g3076-0-2" transform="translate(332.500000, 485.362200) rotate(-180.000000) translate(-332.500000, -485.362200) translate(315.000000, 460.362200)" fill="#FF5555">
                    <polygon id="rect3156-5-0-9-2" points="5 0 0 7 0 14 5 7 5 50 10 50 10 0"></polygon>
                    <path d="M25,1.99999999e-05 C19.46,1.99999999e-05 15,4.46002 15,10.00002 L15,40.00002 C15,45.54002 19.46,50.00002 25,50.00002 C30.54,50.00002 35,45.54002 35,40.00002 L35,10.00002 C35,4.46002 30.54,1.99999999e-05 25,1.99999999e-05 Z M25,5.00002 C27.77,5.00002 30,7.23002 30,10.00002 L30,40.00002 C30,42.77002 27.77,45.00002 25,45.00002 C22.23,45.00002 20,42.77002 20,40.00002 L20,10.00002 C20,7.23002 22.23,5.00002 25,5.00002 Z" id="rect3158-7-9-4-1"></path>
                </g>
                <path d="M90,45.36218 C90,45.36218 96,60.36218 103,70.36218 C110,80.36218 120,90.36218 120,90.36218 C120,90.36218 110,100.36218 103,110.36218 C96,120.36218 90,135.36218 90,135.36218 C90,135.36218 84,120.36218 77,110.36218 C70,100.36218 60,90.36218 60,90.36218 C60,90.36218 70,80.36218 77,70.36218 C84,60.36218 90,45.36218 90,45.36218" id="path3204-24-1" fill="#FF5555"></path>
                <path d="M270,45.36218 C270,45.36218 276,60.36218 283,70.36218 C290,80.36218 300,90.36218 300,90.36218 C300,90.36218 290,100.36218 283,110.36218 C276,120.36218 270,135.36218 270,135.36218 C270,135.36218 264,120.36218 257,110.36218 C250,100.36218 240,90.36218 240,90.36218 C240,90.36218 250,80.36218 257,70.36218 C264,60.36218 270,45.36218 270,45.36218" id="path3204-24-7" fill="#FF5555"></path>
                <path d="M180,105.36218 C180,105.36218 186,120.36218 193,130.36218 C200,140.36218 210,150.36218 210,150.36218 C210,150.36218 200,160.36218 193,170.36218 C186,180.36218 180,195.36218 180,195.36218 C180,195.36218 174,180.36218 167,170.36218 C160,160.36218 150,150.36218 150,150.36218 C150,150.36218 160,140.36218 167,130.36218 C174,120.36218 180,105.36218 180,105.36218" id="path3204-24-4" fill="#FF5555"></path>
                <path d="M90,165.36218 C90,165.36218 96,180.36218 103,190.36218 C110,200.36218 120,210.36218 120,210.36218 C120,210.36218 110,220.36218 103,230.36218 C96,240.36218 90,255.36218 90,255.36218 C90,255.36218 84,240.36218 77,230.36218 C70,220.36218 60,210.36218 60,210.36218 C60,210.36218 70,200.36218 77,190.36218 C84,180.36218 90,165.36218 90,165.36218" id="path3204-24" fill="#FF5555"></path>
                <path d="M270,165.36218 C270,165.36218 276,180.36218 283,190.36218 C290,200.36218 300,210.36218 300,210.36218 C300,210.36218 290,220.36218 283,230.36218 C276,240.36218 270,255.36218 270,255.36218 C270,255.36218 264,240.36218 257,230.36218 C250,220.36218 240,210.36218 240,210.36218 C240,210.36218 250,200.36218 257,190.36218 C264,180.36218 270,165.36218 270,165.36218" id="path3204-24-0" fill="#FF5555"></path>
                <path d="M90,285.36218 C90,285.36218 96,300.36218 103,310.36218 C110,320.36218 120,330.36218 120,330.36218 C120,330.36218 110,340.36218 103,350.36218 C96,360.36218 90,375.36218 90,375.36218 C90,375.36218 84,360.36218 77,350.36218 C70,340.36218 60,330.36218 60,330.36218 C60,330.36218 70,320.36218 77,310.36218 C84,300.36218 90,285.36218 90,285.36218" id="path3204-24-9" fill="#FF5555"></path>
                <path d="M270,285.36218 C270,285.36218 276,300.36218 283,310.36218 C290,320.36218 300,330.36218 300,330.36218 C300,330.36218 290,340.36218 283,350.36218 C276,360.36218 270,375.36218 270,375.36218 C270,375.36218 264,360.36218 257,350.36218 C250,340.36218 240,330.36218 240,330.36218 C240,330.36218 250,320.36218 257,310.36218 C264,300.36218 270,285.36218 270,285.36218" id="path3204-24-48" fill="#FF5555"></path>
                <path d="M180,345.36218 C180,345.36218 186,360.36218 193,370.36218 C200,380.36218 210,390.36218 210,390.36218 C210,390.36218 200,400.36218 193,410.36218 C186,420.36218 180,435.36218 180,435.36218 C180,435.36218 174,420.36218 167,410.36218 C160,400.36218 150,390.36218 150,390.36218 C150,390.36218 160,380.36218 167,370.36218 C174,360.36218 180,345.36218 180,345.36218" id="path3204-24-8" fill="#FF5555"></path>
                <path d="M90,405.36218 C90,405.36218 96,420.36218 103,430.36218 C110,440.36218 120,450.36218 120,450.36218 C120,450.36218 110,460.36218 103,470.36218 C96,480.36218 90,495.3622 90,495.3622 C90,495.3622 84,480.36218 77,470.36218 C70,460.36218 60,450.36218 60,450.36218 C60,450.36218 70,440.36218 77,430.36218 C84,420.36218 90,405.36218 90,405.36218" id="path3204-24-2" fill="#FF5555"></path>
                <path d="M270,405.36218 C270,405.36218 276,420.36218 283,430.36218 C290,440.36218 300,450.36218 300,450.36218 C300,450.36218 290,460.36218 283,470.36218 C276,480.36218 270,495.3622 270,495.3622 C270,495.3622 264,480.36218 257,470.36218 C250,460.36218 240,450.36218 240,450.36218 C240,450.36218 250,440.36218 257,430.36218 C264,420.36218 270,405.36218 270,405.36218" id="path3204-24-45" fill="#FF5555"></path>
                <path d="M30,90.36218 C30,90.36218 33,97.86218 36.5,102.86218 C40,107.86218 45,112.86218 45,112.86218 C45,112.86218 40,117.86218 36.5,122.86218 C33,127.86218 30,135.36218 30,135.36218 C30,135.36218 27,127.86218 23.5,122.86218 C20,117.86218 15,112.86218 15,112.86218 C15,112.86218 20,107.86218 23.5,102.86218 C27,97.86218 30,90.36218 30,90.36218" id="path3204-24-1-5" fill="#FF5555"></path>
                <path d="M330,405.36218 C330,405.36218 333,412.86218 336.5,417.86218 C340,422.86218 345,427.86218 345,427.86218 C345,427.86218 340,432.86218 336.5,437.86218 C333,442.86218 330,450.36218 330,450.36218 C330,450.36218 327,442.86218 323.5,437.86218 C320,432.86218 315,427.86218 315,427.86218 C315,427.86218 320,422.86218 323.5,417.86218 C327,412.86218 330,405.36218 330,405.36218" id="path3204-24-1-1" fill="#FF5555"></path>
            </g>
        </g>
    </g>
</svg>

<svg width="360" height="540" xmlns="http://www.w3.org/2000/svg"><g transform="translate(0 -.362)" fill-rule="nonzero" fill="none"><rect stroke="#000" fill="#FFF" x=".5" y=".862" width="359" height="539" rx="29.944"/><g fill="#F55"><path d="M15 30.362l-5 7v7l5-7v43h5v-50zM35 30.362c-5.54 0-10 4.46-10 10v30c0 5.54 4.46 10 10 10s10-4.46 10-10v-30c0-5.54-4.46-10-10-10zm0 5c2.77 0 5 2.23 5 5v30c0 2.77-2.23 5-5 5s-5-2.23-5-5v-30c0-2.77 2.23-5 5-5z"/></g><g fill="#F55"><path d="M345 510.362l5-7v-7l-5 7v-43h-5v50zM325 510.362c5.54 0 10-4.46 10-10v-30c0-5.54-4.46-10-10-10s-10 4.46-10 10v30c0 5.54 4.46 10 10 10zm0-5c-2.77 0-5-2.23-5-5v-30c0-2.77 2.23-5 5-5s5 2.23 5 5v30c0 2.77-2.23 5-5 5z"/></g><path d="M90 45.362s6 15 13 25 17 20 17 20-10 10-17 20-13 25-13 25-6-15-13-25-17-20-17-20 10-10 17-20 13-25 13-25M270 45.362s6 15 13 25 17 20 17 20-10 10-17 20-13 25-13 25-6-15-13-25-17-20-17-20 10-10 17-20 13-25 13-25M180 105.362s6 15 13 25 17 20 17 20-10 10-17 20-13 25-13 25-6-15-13-25-17-20-17-20 10-10 17-20 13-25 13-25M90 165.362s6 15 13 25 17 20 17 20-10 10-17 20-13 25-13 25-6-15-13-25-17-20-17-20 10-10 17-20 13-25 13-25M270 165.362s6 15 13 25 17 20 17 20-10 10-17 20-13 25-13 25-6-15-13-25-17-20-17-20 10-10 17-20 13-25 13-25M90 285.362s6 15 13 25 17 20 17 20-10 10-17 20-13 25-13 25-6-15-13-25-17-20-17-20 10-10 17-20 13-25 13-25M270 285.362s6 15 13 25 17 20 17 20-10 10-17 20-13 25-13 25-6-15-13-25-17-20-17-20 10-10 17-20 13-25 13-25M180 345.362s6 15 13 25 17 20 17 20-10 10-17 20-13 25-13 25-6-15-13-25-17-20-17-20 10-10 17-20 13-25 13-25M90 405.362s6 15 13 25 17 20 17 20-10 10-17 20-13 25-13 25-6-15-13-25-17-20-17-20 10-10 17-20 13-25 13-25M270 405.362s6 15 13 25 17 20 17 20-10 10-17 20-13 25-13 25-6-15-13-25-17-20-17-20 10-10 17-20 13-25 13-25M30 90.362s3 7.5 6.5 12.5 8.5 10 8.5 10-5 5-8.5 10-6.5 12.5-6.5 12.5-3-7.5-6.5-12.5-8.5-10-8.5-10 5-5 8.5-10 6.5-12.5 6.5-12.5M330 405.362s3 7.5 6.5 12.5 8.5 10 8.5 10-5 5-8.5 10-6.5 12.5-6.5 12.5-3-7.5-6.5-12.5-8.5-10-8.5-10 5-5 8.5-10 6.5-12.5 6.5-12.5" fill="#F55"/></g></svg>
